public/svg/Shape.svg

<svg height="39" viewBox="0 0 38 39" width="38" xmlns="http://www.w3.org/2000/svg" xmlns:xlink="http://www.w3.org/1999/xlink"><linearGradient id="a" x1="50%" x2="50%" y1="0%" y2="100%"><stop offset="0" stop-color="#4db9ec"/><stop offset="1" stop-color="#5c6ddd"/></linearGradient><path d="m604.662552 218.550125v-3.514173c0-5.126543-3.342346-9.471645-7.921787-10.890838v-1.591078c0-1.821845-1.453791-3.304036-3.24073-3.304036s-3.240731 1.482191-3.240731 3.304036v1.591078c-4.579513 1.419193-7.921787 5.764222-7.921787 10.890838v3.514173c0 4.503182-1.683595 8.773171-4.740613 12.023462-.299587.318509-.383774.78849-.21396 1.194373.169814.405882.560862.669251.99368.669251h9.830865c.501809 2.51048 2.684189 4.405382 5.292546 4.405382 2.608428 0 4.790664-1.894902 5.292545-4.405382h9.830865c.432818 0 .823794-.263369.993608-.669251.169814-.405883.085627-.875864-.213888-1.194373-3.057017-3.250291-4.740613-7.520354-4.740613-12.023462zm-12.242761-15.996089c0-.607281.484597-1.101345 1.080244-1.101345.595646 0 1.080243.494064 1.080243 1.101345v1.154798c-.355544-.034949-.715841-.053452-1.080243-.053452-.364403 0-.7247.018503-1.080244.053452zm1.080244 32.085866c-1.408278 0-2.609005-.920799-3.054929-2.202691h6.109857c-.445924 1.281892-1.646651 2.202691-3.054928 2.202691zm0-28.781829c4.963719 0 9.00203 4.117196 9.00203 9.177879v3.514173c0 4.253396 1.332948 8.322207 3.793167 11.684395h-25.590323c2.460147-3.362188 3.793095-7.430999 3.793095-11.684395v-3.514173c0-5.060683 4.038311-9.177879 9.002031-9.177879zm11.76874-5.281018c3.69579 3.73668 5.731225 8.705812 5.731225 13.989562 0 .668563-.536873 1.211161-1.198382 1.211161s-1.198381-.542598-1.198381-1.211161c0-4.637955-1.786162-8.99648-5.029926-12.276313-.468118-.47311-.468118-1.24014 0-1.713249.468117-.47311 1.227054-.47311 1.695464 0zm-21.842006.000033c.468012.473155.468012 1.240553 0 1.713708-3.244495 3.278371-5.030547 7.63731-5.030547 12.275705 0 .668627-.536751 1.211277-1.198111 1.211277-.661359 0-1.198111-.54265-1.198111-1.211277 0-5.284251 2.035268-10.253856 5.731687-13.989413.468012-.473154 1.227069-.473154 1.695082 0z" fill="url(#a)" transform="matrix(.96592583 .25881905 -.25881905 .96592583 -497.342444 -344.179356)"/></svg>

<?xml version="1.0" encoding="UTF-8"?>
<svg width="38px" height="39px" viewBox="0 0 38 39" version="1.1" xmlns="http://www.w3.org/2000/svg" xmlns:xlink="http://www.w3.org/1999/xlink">
    <title>Shape</title>
    <defs>
        <linearGradient x1="50%" y1="0%" x2="50%" y2="100%" id="linearGradient-1">
            <stop stop-color="#4DB9EC" offset="0%"></stop>
            <stop stop-color="#5C6DDD" offset="100%"></stop>
        </linearGradient>
    </defs>
    <g id="Page-1" stroke="none" stroke-width="1" fill="none" fill-rule="evenodd">
        <g id="Notifications-user-desktop" transform="translate(-574.000000, -198.000000)" fill="url(#linearGradient-1)" fill-rule="nonzero">
            <path d="M604.662552,218.550125 L604.662552,215.035952 C604.662552,209.909409 601.320206,205.564307 596.740765,204.145114 L596.740765,202.554036 C596.740765,200.732191 595.286974,199.25 593.500035,199.25 C591.713096,199.25 590.259304,200.732191 590.259304,202.554036 L590.259304,204.145114 C585.679791,205.564307 582.337517,209.909336 582.337517,215.035952 L582.337517,218.550125 C582.337517,223.053307 580.653922,227.323296 577.596904,230.573587 C577.297317,230.892096 577.21313,231.362077 577.382944,231.76796 C577.552758,232.173842 577.943806,232.437211 578.376624,232.437211 L588.207489,232.437211 C588.709298,234.947691 590.891678,236.842593 593.500035,236.842593 C596.108463,236.842593 598.290699,234.947691 598.79258,232.437211 L608.623445,232.437211 C609.056263,232.437211 609.447239,232.173842 609.617053,231.76796 C609.786867,231.362077 609.70268,230.892096 609.403165,230.573587 C606.346148,227.323296 604.662552,223.053233 604.662552,218.550125 Z M592.419791,202.554036 C592.419791,201.946755 592.904388,201.452691 593.500035,201.452691 C594.095681,201.452691 594.580278,201.946755 594.580278,202.554036 L594.580278,203.708834 C594.224734,203.673885 593.864437,203.655382 593.500035,203.655382 C593.135632,203.655382 592.775335,203.673885 592.419791,203.708834 L592.419791,202.554036 Z M593.500035,234.639902 C592.091757,234.639902 590.89103,233.719103 590.445106,232.437211 L596.554963,232.437211 C596.109039,233.719103 594.908312,234.639902 593.500035,234.639902 L593.500035,234.639902 Z M593.500035,205.858073 C598.463754,205.858073 602.502065,209.975269 602.502065,215.035952 L602.502065,218.550125 C602.502065,222.803521 603.835013,226.872332 606.295232,230.23452 L580.704909,230.23452 C583.165056,226.872332 584.498004,222.803521 584.498004,218.550125 L584.498004,215.035952 C584.498004,209.975269 588.536315,205.858073 593.500035,205.858073 Z M605.268775,200.577055 C608.964565,204.313735 611,209.282867 611,214.566617 C611,215.23518 610.463127,215.777778 609.801618,215.777778 C609.140109,215.777778 608.603237,215.23518 608.603237,214.566617 C608.603237,209.928662 606.817075,205.570137 603.573311,202.290304 C603.105193,201.817194 603.105193,201.050164 603.573311,200.577055 C604.041428,200.103945 604.800365,200.103945 605.268775,200.577055 Z M583.426769,200.577088 C583.894781,201.050243 583.894781,201.817641 583.426769,202.290796 C580.182274,205.569167 578.396222,209.928106 578.396222,214.566501 C578.396222,215.235128 577.859471,215.777778 577.198111,215.777778 C576.536752,215.777778 576,215.235128 576,214.566501 C576,209.28225 578.035268,204.312645 581.731687,200.577088 C582.199699,200.103934 582.958756,200.103934 583.426769,200.577088 Z" id="Shape" transform="translate(593.500000, 218.046296) rotate(15.000000) translate(-593.500000, -218.046296) "></path>
        </g>
    </g>
</svg>
